X: 1
T:John Ryan's
S:via PR
M:4/4
L:1/4
K:G
e/2f/2|"G"gg "Em"e/2f/2(3g/2f/2e/2|"G"dB dB|"G"gg "Em"e/2f/2(3g/2f/2e/2|
"G"dB "D7"AG|"G"gg "Em"e/2f/2(3g/2f/2e/2|"G"dB "D7"dg/2a/2|"G"bg "D7"af|"G"g3\
